X:257
T: Ach, Schatz, jetzt mu ich wandern (3-59), S. 170
N: P1032
O: Lothringen
S: PINCK, Louis: Verklingende Weisen, Bd3, Metz 1933]
R: Abschied, Liebe]
M: 4/4
L: 1/16
K: D
A4 | F4A4F4A4 | F4E2F2E4
E2F2 | G4G4G2A2B4 | A8z4
A4 | B2B2G4B4d4 | A4F2A2D4
A4 | B2B2G4B4d4 | A4F2A2D4
F3A | A2G2E4D2D2C4 | D8z4

@@@ Tune index: 7807
